X:13789
T:Queen of the Rushes
Z: id:dc-jig-104
M:6/8
L:1/8
K:G Major
c|B2G GFG|c2A AGA|B2G GFG|cAG FGA|!
B2G GFG|c2A AGA|BdB cAF|AGF G2:|!
g|fed efg|afd dcA|gfg bag|afd d2e|!
=f2d e^fg|afd dcA|BdB cAF|AGF G2:|!
B|d^cd gdB|d^cd gdB|cBc A^GA|=fef ABc|!
d^cd gdB|d^cd gd=c|BdB cAF|AGF G2:|!
